X:1
T:Three Jolly Welchmen
M:4/4
L:1/8
K:G
 DD| GG DD GG-D D| GF AG G2 G2| A2 BA A2 B2| AB AG F2| ED|
M:2/4
 G2 D2|
M:4/4
 GF AG G2 DD| GG A2 G2 D2| GF AG A/2A/2 GG A| c2 AG G2 DD| G4 z2||\
